!!!OTL: Een stuck van liefde moet ik u verhalen
!!!ARE: Europa, Mitteleuropa, Deutschland
!!!SCT: L0081
!!!YEM: Copyright 1995, estate of Helmut Schaffrath.
**kern
*ICvox
*Ivox
*M2/4
*k[]
*a:
{4a
8b
8b
=1
4.ccn
8b
=2
8a
8gn
8a
8e
=3
4e
4d}
=4
{4gn
8gn
8gn
=5
4.a
8a
=6
8gn
8a
8gn
8fn
=7
2e}
=8
{4a
8b
8b
=9
4.ccn
8b
=10
8a
8gn
8a
8e
=11
4e
4d}
=12
{4gn
8gn
8gn
=13
4.a
8a
=14
8gn
8a
8gn
8fn
=15
2e}
=16
{4e
8e
8fn
=17
4e
4d
=18
4gn
8a
8b
=19
4a
8gn}
{8gn
=20
8a
8a
8b
8b
=21
4.ccn
8b
=22
8b
8a
8a
8g#
=23
2a}
==
!!!AGN: Lied
!! Coussemaker Nr. 51
!!!ONB: ESAC (Essen Associative Code) Database: ERK5
!!!AMT: simple duple
!!!AIN: vox
!!!EED: Helmut Schaffrath
!!!EEV: 1.0
*-
